X: 109202
T: THIS IS NO MY AIN HOUSE
Q: "Reel."
R:  Reel.
%R: reel
B: James Kerr "Merry Melodies" v.1 p.9 s.2 #2
Z: 2017 John Chambers <jc:trillian.mit.edu>
M: C
L: 1/8
K: D
|: A |\
FAAa f2(ed) | (B/c/d) (AF) BEEG |\
FA Aa gf ed | (B/c/d) (AG) FD D :|\
A |\
FAAd (B/c/d) (AF) | GBAF BEEG |
FAAd (B/c/d) (AF) | GBAG FDDG |\
FAAd (B/c/d) (AF) | GBAF BEEG |\
FA Da gfed | (B/c/d) (AG) FD D |]

%%sep 1 1 500
%%sep 1 1 500

